Hatter-kde/actions/24/dialog-ok-apply.svg

<?xml version="1.0" encoding="UTF-8"?>
<svg viewBox="0 0 24 24" xmlns="http://www.w3.org/2000/svg">
 <defs id="defs3051">
  <style id="current-color-scheme" type="text/css">.ColorScheme-Text {
        color:#363636;
      }</style>
 </defs>
 <path class="ColorScheme-Text" d="m19.293 6-10.439 10.566-4.1465-4.1973-0.70703 0.71484 4.1465 4.1973-0.0019532 0.003906 0.70703 0.71484 0.0019531-0.001953 0.0019532 0.001953 0.70703-0.71484-0.0019531-0.003906 10.439-10.566-0.70703-0.71484z" fill="currentColor"/>
</svg>

<svg xmlns="http://www.w3.org/2000/svg" viewBox="0 0 24 24">
  <defs id="defs3051">
    <style type="text/css" id="current-color-scheme">
      .ColorScheme-Text {
        color:#363636;
      }
      </style>
  </defs>
 <path style="fill:currentColor;fill-opacity:1;stroke:none" 
     d="M 19.292969 6 L 8.8535156 16.566406 L 4.7070312 12.369141 L 4 13.083984 L 8.1464844 17.28125 L 8.1445312 17.285156 L 8.8515625 18 L 8.8535156 17.998047 L 8.8554688 18 L 9.5625 17.285156 L 9.5605469 17.28125 L 20 6.7148438 L 19.292969 6 z "
     class="ColorScheme-Text"
     />
</svg>
